X: 15
T: Santa Lucia   [C]
O: Italy, trad Napoli
Z: 1999 John Chambers <jc:trillian.mit.edu>
S: Helene Criscio, Tony Santorella "Italian Favorites for Accordion" 1997
R: waltz
L: 1/8
M: 3/4
K: C
|: "C"G2 G3 c | "G7"cB B4 | "F"F2 F3 A | "C"AG G4 |
w: Sul ma-re luc-ci-ca, l'a-stro d'ar- gen-*to,
| "A7"E2 A2 G2 | "Dm"G_GF4 | "G7"F2 E2 D2 | "C"A2 G4 :|
w: Pla-ci d~\`e l'on-*da, pro-spe-ro~\`e~il ven-to;
|: "C"e2 d2 c2 | "Dm"BA d4 | "F"d2 c2 A2 | "C"^FG c4 |
w: Ve-ni-te~al- l'a-gi-le bar-chet-ta mi-*a
| "C"ec cG GE | "Dm"Fd d4 |1 "G7"d2 A3 B | "C"d2 c4 :|2 "G7"d2 e3 d | d2 "C"c4 :|
w: San-*ta* Lu-* ci-*a, San-ta Lu- ci-a.  San-ta Lu- ci-a.
"Coda"[|\
"C"GA Bc de | "C"fe a3 g | "G7"cB e3 d | "C"c2 [c2E2] z2 |]
%
%:1. Sul mare luccica l'astro d'argento. Placida \`e l'onda, prospero \`e il vento. :|
%:|: Venite all'agile barchetta mia,     Santa Lucia! Santa Lucia! :|
%:
W:2. Con questo zeffiro, cos\`i soave, Oh, com'\`e bello star sulla nave! :|
W:|: Su passegieri, venite via!      Santa Lucia! Santa Lucia! :|
%:
W:3. In fra le tende, bandir la cena In una sera cos\`i serena, :|
W:|: Chi non dimanda, chi non desia. Santa Lucia! Santa Lucia! :|
%:
W:4. Mare s\`i placida, vento s\`i caro, Scordar fa i triboli al marinaro, :|
W:|: E va gridando con allegria,     Santa Lucia! Santa Lucia! :|
%:
W:5. O dolce Napoli, o suol beato,   Ove sorridere volle il creato, :|
W:|: Tu sei l'impero dell'armonia,   Santa Lucia! Santa Lucia! :|
%:
W:6. Or che tardate? Bella \`e la sera. Spira un'auretta fresca e leggiera. :|
W:|: Venite all'agile barchetta mia,  Santa Lucia! Santa Lucia! :|

%%sep 1 1 400


